src/assets/PaymentBridges/inxt.svg

<svg xmlns="http://www.w3.org/2000/svg" width="35" height="35" viewBox="0 0 35 35">
  <g fill="none" fill-rule="evenodd">
    <circle cx="17.5" cy="17.5" r="17.5" fill="#000"/>
    <path fill="#FFF" fill-rule="nonzero" d="M24.1450876,19.1388553 C23.4539276,18.2772249 23.4539276,17.0724452 24.1450876,16.2108148 L25.5900125,14.4099071 C26.8646517,12.8193976 26.3588027,11.0084709 25.3471049,9.99906086 C24.3404154,8.98965084 22.5273727,8.48369346 20.9397082,9.75860587 L19.1366823,11.2038406 C18.2752365,11.8951487 17.0707151,11.8951487 16.2092693,11.2038406 L14.4062434,9.75860587 C12.8210831,8.48369346 11.0080404,8.98965084 9.99884673,9.99906086 C8.98965306,11.0084709 8.48380412,12.8193976 9.75844328,14.4099071 L11.2033682,16.2108148 C11.8945282,17.0724452 11.8945282,18.2772249 11.2033682,19.1388553 L9.75844328,20.939763 C8.48380412,22.5302726 8.98965306,24.3411993 9.99884673,25.3506093 C10.582326,25.9342136 11.4337549,26.3500004 12.3553014,26.3500004 C13.0264278,26.3500004 13.7376213,26.1295833 14.4062434,25.5910643 L16.2092693,24.1458296 C17.0707151,23.4545215 18.2752365,23.4545215 19.1366823,24.1458296 L20.9397082,25.5910643 C22.5298769,26.8659767 24.3379112,26.3600193 25.3496091,25.3506093 C26.3588027,24.3411993 26.8671559,22.5302726 25.5925167,20.939763 L24.1450876,19.1388553 Z M25.0741468,25.0775927 C24.8287349,25.3230572 24.4681297,25.4983889 24.0799783,25.4983889 C23.7970034,25.4983889 23.4964991,25.4057136 23.2135242,25.1777823 L18.3153038,21.2503507 C17.9371692,20.9472773 17.4112866,20.9472773 17.033152,21.2503507 L12.1349316,25.180287 C11.4663095,25.718806 10.7000235,25.5059032 10.274309,25.0775927 C9.84859457,24.651787 9.63323314,23.8878414 10.1716367,23.2165713 L14.1007307,18.3173008 C14.4037392,17.9390851 14.4037392,17.4130898 14.1007307,17.0348741 L10.1716367,12.1356037 C9.63323314,11.4643335 9.84859457,10.7003879 10.274309,10.2745822 C10.7000235,9.84877649 11.4663095,9.63587363 12.1349316,10.1718879 L17.033152,14.1018242 C17.4112866,14.4048977 17.9396734,14.4048977 18.3153038,14.1018242 L23.2135242,10.1718879 C23.8821463,9.6333689 24.6484323,9.84627175 25.0741468,10.2745822 C25.4998612,10.7003879 25.7152227,11.4643335 25.1768191,12.1356037 L21.2477251,17.0348741 C20.9447166,17.4130898 20.9447166,17.9390851 21.2477251,18.3173008 L25.1768191,23.2165713 C25.7152227,23.8878414 25.4998612,24.651787 25.0741468,25.0775927 Z"/>
  </g>
</svg>

<?xml version="1.0" encoding="UTF-8" standalone="no"?>
<svg
   xmlns:dc="http://purl.org/dc/elements/1.1/"
   xmlns:cc="http://creativecommons.org/ns#"
   xmlns:rdf="http://www.w3.org/1999/02/22-rdf-syntax-ns#"
   xmlns:svg="http://www.w3.org/2000/svg"
   xmlns="http://www.w3.org/2000/svg"
   xmlns:sodipodi="http://sodipodi.sourceforge.net/DTD/sodipodi-0.dtd"
   xmlns:inkscape="http://www.inkscape.org/namespaces/inkscape"
   width="35"
   height="35"
   viewBox="0 0 35 35"
   version="1.1"
   id="svg8"
   sodipodi:docname="inxt.svg"
   inkscape:version="0.92.4 (5da689c313, 2019-01-14)">
  <metadata
     id="metadata14">
    <rdf:RDF>
      <cc:Work
         rdf:about="">
        <dc:format>image/svg+xml</dc:format>
        <dc:type
           rdf:resource="http://purl.org/dc/dcmitype/StillImage" />
      </cc:Work>
    </rdf:RDF>
  </metadata>
  <defs
     id="defs12" />
  <sodipodi:namedview
     pagecolor="#ffffff"
     bordercolor="#666666"
     borderopacity="1"
     objecttolerance="10"
     gridtolerance="10"
     guidetolerance="10"
     inkscape:pageopacity="0"
     inkscape:pageshadow="2"
     inkscape:window-width="640"
     inkscape:window-height="480"
     id="namedview10"
     showgrid="false"
     inkscape:zoom="6.7428571"
     inkscape:cx="17.5"
     inkscape:cy="17.5"
     inkscape:window-x="0"
     inkscape:window-y="0"
     inkscape:window-maximized="0"
     inkscape:current-layer="svg8" />
  <g
     id="g6"
     transform="matrix(0.80084746,0,0,0.80084746,3.7076272,3.5593221)"
     style="fill:none;fill-rule:evenodd">
    <circle
       cx="17.5"
       cy="17.5"
       r="17.5"
       id="circle2"
       style="fill:#000000" />
    <path
       d="m 24.145088,19.138855 c -0.69116,-0.86163 -0.69116,-2.06641 0,-2.92804 l 1.444924,-1.800908 c 1.27464,-1.590509 0.768791,-3.401436 -0.242907,-4.4108461 -1.00669,-1.0094101 -2.819732,-1.5153674 -4.407397,-0.240455 l -1.803026,1.4452351 c -0.861446,0.691308 -2.065967,0.691308 -2.927413,0 L 14.406243,9.7586059 C 12.821083,8.4836935 11.00804,8.9896508 9.9988467,9.9990609 8.9896531,11.008471 8.4838041,12.819398 9.7584433,14.409907 l 1.4449247,1.800908 c 0.69116,0.86163 0.69116,2.06641 0,2.92804 L 9.7584433,20.939763 C 8.4838041,22.530273 8.9896531,24.341199 9.9988467,25.350609 10.582326,25.934214 11.433755,26.35 12.355301,26.35 c 0.671127,0 1.38232,-0.220417 2.050942,-0.758936 l 1.803026,-1.445234 c 0.861446,-0.691309 2.065967,-0.691309 2.927413,0 l 1.803026,1.445234 c 1.590169,1.274913 3.398203,0.768955 4.409901,-0.240455 1.009194,-1.00941 1.517547,-2.820336 0.242908,-4.410846 z m 0.929059,5.938738 c -0.245412,0.245464 -0.606017,0.420796 -0.994169,0.420796 -0.282975,0 -0.583479,-0.09267 -0.866454,-0.320607 l -4.89822,-3.927431 c -0.378135,-0.303074 -0.904017,-0.303074 -1.282152,0 l -4.89822,3.929936 C 11.46631,25.718806 10.700024,25.505903 10.274309,25.077593 9.8485946,24.651787 9.6332331,23.887841 10.171637,23.216571 l 3.929094,-4.89927 c 0.303008,-0.378216 0.303008,-0.904211 0,-1.282427 l -3.929094,-4.89927 c -0.5384039,-0.67127 -0.3230424,-1.435216 0.102672,-1.861022 0.425715,-0.4258055 1.192001,-0.6387084 1.860623,-0.102694 l 4.89822,3.929936 c 0.378135,0.303074 0.906521,0.303074 1.282152,0 l 4.89822,-3.929936 c 0.668622,-0.5385191 1.434908,-0.3256162 1.860623,0.102694 0.425714,0.425806 0.641076,1.189752 0.102672,1.861022 l -3.929094,4.89927 c -0.303008,0.378216 -0.303008,0.904211 0,1.282427 l 3.929094,4.89927 c 0.538404,0.67127 0.323042,1.435216 -0.102672,1.861022 z"
       id="path4"
       inkscape:connector-curvature="0"
       style="fill:#ffffff;fill-rule:nonzero" />
  </g>
</svg>
